img/create.svg

<?xml version="1.0" encoding="UTF-8" standalone="no"?>
<svg width="16px" height="16px" viewBox="0 0 16 16" version="1.1" xmlns="http://www.w3.org/2000/svg" xmlns:xlink="http://www.w3.org/1999/xlink" xmlns:sketch="http://www.bohemiancoding.com/sketch/ns">
    <!-- Generator: Sketch 3.0.4 (8053) - http://www.bohemiancoding.com/sketch -->
    <title>add</title>
    <desc>Created with Sketch.</desc>
    <defs>
        <linearGradient x1="50%" y1="100%" x2="50%" y2="0%" id="linearGradient-1">
            <stop stop-color="#9C59BF" offset="0%"></stop>
            <stop stop-color="#A75FCC" offset="100%"></stop>
        </linearGradient>
        <filter x="-50%" y="-50%" width="200%" height="200%" filterUnits="objectBoundingBox" id="filter-2">
            <feOffset dx="0" dy="0.3" in="SourceAlpha" result="shadowOffsetOuter1"></feOffset>
            <feGaussianBlur stdDeviation="0.5" in="shadowOffsetOuter1" result="shadowBlurOuter1"></feGaussianBlur>
            <feColorMatrix values="0 0 0 0 0   0 0 0 0 0   0 0 0 0 0  0 0 0 0.21 0" in="shadowBlurOuter1" type="matrix" result="shadowMatrixOuter1"></feColorMatrix>
            <feMerge>
                <feMergeNode in="shadowMatrixOuter1"></feMergeNode>
                <feMergeNode in="SourceGraphic"></feMergeNode>
            </feMerge>
        </filter>
    </defs>
    <g id="Page-1" stroke="none" stroke-width="1" fill="none" fill-rule="evenodd" sketch:type="MSPage">
        <g id="add" sketch:type="MSArtboardGroup">
            <rect id="Rectangle-4" stroke="#9353B4" stroke-width="0.5" fill="url(#linearGradient-1)" sketch:type="MSShapeGroup" x="0" y="0" width="16" height="16" rx="3"></rect>
            <path d="M7.30000019,8.70000019 L3,8.70000019 L3,7.30000019 L7.30000019,7.30000019 L7.30000019,2.79999995 L8.70000019,2.79999995 L8.70000019,7.30000019 L13,7.30000019 L13,8.70000019 L8.70000019,8.70000019 L8.70000019,12.8 L7.30000019,12.8 L7.30000019,8.70000019 Z" id="Rectangle-7" fill="#FFFFFF" filter="url(#filter-2)" sketch:type="MSShapeGroup"></path>
        </g>
    </g>
</svg>

<svg viewBox="0 0 16 16" xmlns="http://www.w3.org/2000/svg"><defs><filter x="-8" y="-8" width="32" height="32" filterUnits="objectBoundingBox" id="0"><feOffset dx="0" dy=".3" in="SourceAlpha" result="shadowOffsetOuter1"/><feGaussianBlur stdDeviation=".5" in="shadowOffsetOuter1" result="shadowBlurOuter1"/><feColorMatrix values="0 0 0 0 0   0 0 0 0 0   0 0 0 0 0  0 0 0 0.21 0" in="shadowBlurOuter1" type="matrix" result="shadowMatrixOuter1"/><feMerge><feMergeNode in="shadowMatrixOuter1"/><feMergeNode in="SourceGraphic"/></feMerge></filter><linearGradient y1="100%" x2="0" y2="0%" id="1"><stop stop-color="#9c59bf" offset="0%"/><stop stop-color="#a75fcc" offset="100%"/></linearGradient></defs><g fill="none" fill-rule="evenodd"><rect stroke="#9353b4" stroke-width=".5" fill="url(#1)" width="16" height="16" rx="3"/><path d="m7.3 8.7h-4.3v-1.4h4.3v-4.5h1.4v4.5h4.3v1.4h-4.3v4.1h-1.4v-4.1" fill="#fff" filter="url(#0)"/></g></svg>
